packages/kaspersky-hexa-ui-icons/src/iconsSVGs/16/ServerHistorian.svg

<svg width="16" height="16" viewBox="0 0 16 16" fill="none" xmlns="http://www.w3.org/2000/svg">
<path fill-rule="evenodd" clip-rule="evenodd" d="M13.5292 8.00662V3.48189C13.5326 3.43886 13.5344 3.39398 13.5344 3.34882C13.5344 2.45279 12.8326 1.98019 12.5567 1.8192C12.1888 1.60458 11.7429 1.45574 11.3055 1.34781C10.4105 1.12697 9.24228 1.00391 7.99962 1.00391C6.75696 1.00391 5.58875 1.12697 4.69375 1.34781C4.25633 1.45574 3.81047 1.60458 3.44257 1.8192C3.16659 1.98019 2.46484 2.45279 2.46484 3.34882C2.46484 3.42429 2.46982 3.49676 2.47911 3.56629L2.47931 8.01978C2.47659 8.04392 2.4752 8.06846 2.4752 8.09334C2.4752 8.12613 2.4766 8.15854 2.47932 8.19056L2.47951 12.6934C2.47951 13.0829 2.67602 13.422 2.92983 13.6819C3.18783 13.946 3.54669 14.1748 3.98913 14.3632C4.87476 14.7405 6.18978 14.9964 8.01089 14.9964C9.83042 14.9964 11.1416 14.746 12.0237 14.3745C12.4644 14.1889 12.8225 13.9628 13.0801 13.7C13.3344 13.4406 13.5292 13.1025 13.5292 12.7139V8.20772C13.533 8.17015 13.535 8.13201 13.535 8.09334C13.535 8.06393 13.533 8.03498 13.5292 8.00662ZM11.2075 4.03098L11.1896 4.03608C10.4133 4.25527 9.272 4.39373 7.99962 4.39373C6.72724 4.39373 5.58592 4.25527 4.80964 4.03608L4.79169 4.03098C4.15179 3.84793 3.76484 3.60953 3.76484 3.34882C3.76484 3.08811 4.15179 2.84971 4.79169 2.66666L4.80964 2.66156C5.58592 2.44237 6.72724 2.30391 7.99962 2.30391C9.272 2.30391 10.4133 2.44237 11.1896 2.66156L11.2075 2.66666C11.8475 2.84971 12.2344 3.08812 12.2344 3.34882C12.2344 3.60953 11.8475 3.84793 11.2075 4.03098ZM11.3055 5.34983C10.4105 5.57067 9.24228 5.69374 7.99962 5.69374C6.75696 5.69374 5.58875 5.57067 4.69375 5.34983C4.38281 5.27311 4.06761 5.17572 3.77917 5.04872L3.77931 8.07416C3.78949 8.09171 3.81123 8.12307 3.85533 8.16744C3.96187 8.27463 4.16298 8.41763 4.50094 8.55979C5.1756 8.84359 6.30039 9.0839 7.99767 9.0839C9.69483 9.0839 10.8239 8.84363 11.5028 8.55937C11.843 8.41693 12.0463 8.27351 12.1542 8.16571C12.1963 8.12373 12.2182 8.09339 12.2292 8.07537V5.04467C11.9383 5.17365 11.6197 5.2723 11.3055 5.34983ZM12.2292 9.65783C12.157 9.69258 12.0822 9.72615 12.0049 9.75851C11.1152 10.131 9.8006 10.3839 7.99767 10.3839C6.19487 10.3839 4.88342 10.131 3.99687 9.75809C3.922 9.7266 3.84947 9.69396 3.77938 9.66019L3.77951 12.6696C3.78662 12.6844 3.8071 12.7195 3.85985 12.7735C3.96446 12.8806 4.16276 13.0242 4.49855 13.1672C5.16936 13.4529 6.29503 13.6964 8.01089 13.6964C9.72832 13.6964 10.8514 13.4576 11.5192 13.1764C11.8534 13.0357 12.0492 12.8946 12.1518 12.7899C12.2022 12.7385 12.2221 12.7049 12.2292 12.6904V9.65783Z" fill="black"/>
</svg>

<svg xmlns="http://www.w3.org/2000/svg" width="16" height="16" fill="none" viewBox="0 0 16 16"><path fill="#000" fill-rule="evenodd" d="M13.5292 8.0065V3.4818c.0034-.043.0052-.088.0052-.1331 0-.896-.7018-1.3686-.9777-1.5296-.3679-.2146-.8138-.3635-1.2512-.4714-.895-.2208-2.0632-.344-3.3059-.344s-2.4108.1231-3.3059.344c-.4374.108-.8832.2568-1.2511.4714-.276.161-.9778.6336-.9778 1.5296q.0002.1132.0143.2175l.0002 4.4535a.7.7 0 0 0-.0041.0735q0 .0492.0041.0972l.0002 4.5029c0 .3895.1965.7286.4503.9884.258.2642.6169.493 1.0593.6814.8857.3772 2.2007.6332 4.0218.6332 1.8195 0 3.1307-.2504 4.0128-.6219.4407-.1856.7988-.4118 1.0564-.6746.2543-.2594.4491-.5975.4491-.986V8.2076a1.1 1.1 0 0 0 .0058-.1144.7.7 0 0 0-.0058-.0867m-2.3217-3.9756-.0179.005c-.7763.2193-1.9176.3577-3.19.3577s-2.4137-.1384-3.19-.3576l-.018-.0051c-.6398-.183-1.0268-.4215-1.0268-.6822s.387-.4991 1.0269-.6822l.018-.005c.7762-.2193 1.9175-.3577 3.19-.3577 1.2723 0 2.4136.1385 3.1899.3576l.0179.0051c.64.183 1.0269.4215 1.0269.6822s-.3869.4991-1.0269.6822m.098 1.3188c-.895.2208-2.0632.344-3.3059.344s-2.4108-.1231-3.3059-.344c-.3109-.0767-.626-.1741-.9145-.3011l.0001 3.0254c.0102.0176.032.049.076.0933.1066.1072.3077.2502.6456.3924.6747.2838 1.7995.524 3.4968.524 1.6971 0 2.8262-.2402 3.5051-.5244.3402-.1425.5435-.286.6514-.3937.0421-.042.064-.0723.075-.0903V5.0445c-.2909.129-.6095.2277-.9237.3052m.9237 4.308a5 5 0 0 1-.2243.1007c-.8897.3725-2.2043.6254-4.0072.6254-1.8028 0-3.1143-.2529-4.0008-.6258a5 5 0 0 1-.2175-.098l.0001 3.0095c.0071.0148.0276.0499.0803.1039.1047.1071.303.2507.6387.3937.6709.2857 1.7965.5292 3.5124.5292 1.7174 0 2.8405-.2388 3.5083-.52.3342-.1408.53-.2819.6326-.3865.0504-.0514.0703-.085.0774-.0995z"/></svg>
